/* XPM */
static char *result[] = {
/* columns rows colors chars-per-pixel */
"64 64 170 2 ",
"   c #371F2B",
".  c #381F2B",
"X  c #3A212D",
"o  c #21263F",
"O  c #3E2531",
"+  c #3F2E3D",
"@  c #3E2936",
"#  c #4E292E",
"$  c #532B2F",
"%  c #402631",
"&  c #452932",
"*  c #4C2C33",
"=  c #422E3B",
"-  c #522F34",
";  c #5E2F31",
":  c #44303D",
">  c #503034",
",  c #5C3334",
"<  c #59383E",
"1  c #643333",
"2  c #6A3534",
"3  c #6E3835",
"4  c #653A39",
"5  c #6B3F3A",
"6  c #63373A",
"7  c #723733",
"8  c #753A36",
"9  c #783C36",
"0  c #733D39",
"q  c #6E413B",
"w  c #73413B",
"e  c #7E4138",
"r  c #232740",
"t  c #252A43",
"y  c #282D46",
"u  c #292F49",
"i  c #2C334C",
"p  c #2F3650",
"a  c #343B54",
"s  c #383E56",
"d  c #363E58",
"f  c #383F59",
"g  c #473441",
"h  c #4A3643",
"j  c #4E3A46",
"k  c #443748",
"l  c #453A4B",
"z  c #4C3D4C",
"x  c #503741",
"c  c #503C48",
"v  c #493F50",
"b  c #3C435C",
"n  c #37405A",
"m  c #3D4761",
"M  c #3E4963",
"N  c #4D4252",
"B  c #46475D",
"V  c #49465B",
"C  c #4A485D",
"Z  c #564B5B",
"A  c #5D4D5B",
"S  c #6A4246",
"D  c #764443",
"F  c #784544",
"G  c #794847",
"H  c #794948",
"J  c #634851",
"K  c #724E53",
"L  c #7A5153",
"P  c #7C595E",
"I  c #78575D",
"U  c #424C67",
"Y  c #4B4B61",
"T  c #444E69",
"R  c #47526C",
"E  c #4B556E",
"W  c #545165",
"Q  c #5C5363",
"!  c #54556A",
"~  c #5D5A6D",
"^  c #4D5770",
"/  c #4E5A74",
"(  c #4E5C78",
")  c #525B74",
"_  c #535F7A",
"`  c #605766",
"'  c #635866",
"]  c #665C6B",
"[  c #6F5B67",
"{  c #7D5E64",
"}  c #715D67",
"|  c #52617D",
" . c #5C657C",
".. c #6C616F",
"X. c #7F6067",
"o. c #7D6169",
"O. c #626377",
"+. c #6E6371",
"@. c #66667A",
"#. c #686679",
"$. c #6F6979",
"%. c #7C6D7A",
"&. c #804239",
"*. c #834A3D",
"=. c #8B4B3D",
"-. c #88473B",
";. c #934E3E",
":. c #95503F",
">. c #8A4F40",
",. c #8F5341",
"<. c #915442",
"1. c #9B5440",
"2. c #9D5B44",
"3. c #A65C43",
"4. c #A95D44",
"5. c #AC6247",
"6. c #AF6448",
"7. c #B36547",
"8. c #B46648",
"9. c #B66848",
"0. c #BC6B4A",
"q. c #806E7B",
"w. c #81707B",
"e. c #C16F4B",
"r. c #C3704B",
"t. c #546380",
"y. c #596681",
"u. c #5D6A84",
"i. c #5F6D89",
"p. c #616A82",
"a. c #6D6F82",
"s. c #616F8A",
"d. c #6E7084",
"f. c #65738C",
"g. c #69758E",
"h. c #727387",
"j. c #737589",
"k. c #7A7A8C",
"l. c #697690",
"z. c #6C7A93",
"x. c #747C92",
"c. c #717F98",
"v. c #817785",
"b. c #837886",
"n. c #847C8B",
"m. c #76839B",
"M. c #79849C",
"N. c #7F8093",
"B. c #7887A0",
"V. c #7D8BA3",
"C. c #828294",
"Z. c #8C8B9B",
"A. c #918F9F",
"S. c #91909F",
"D. c #818CA3",
"F. c #888EA3",
"G. c #808FA8",
"H. c #8791A7",
"J. c #8D94A7",
"K. c #8391AA",
"L. c #8B95AB",
"P. c #8A9AB3",
"I. c #929CB2",
"U. c #8DA1BC",
"Y. c #9EA9BD",
"T. c #A1A7B9",
"R. c #A4ABBD",
"E. c #8FA7C4",
"W. c #8FA8C4",
"Q. c #A4AFC2",
/* pixels */
"r r r r t t r t t t u t t t t t t t y t y t t t y t t t t r r t r t r t t t t t o u o t t t t t t t t t o u p n T | | | | | _ ( ",
"t t y y t t t t t t t t t t t u t y t t t t t y t t t y t t t t t t t t t t t u y u u + t t t t t y t t y o i n U ^ | | | | | | ",
"i i i i i u u u u t t t t t t t y t t y t y t y r y t y u u i i i i i u u t t t y o o y t t t t t t t t y y y n b ^ ( | t.t.y.u.",
"d d d f d d d p u t o o r r r r r r o r o r o o o o t y p a d d n d a p u t o o o o y o t r t r o r r t o o u p n b R _ i.s.f.m.",
"U U M T M T m d i t o o o r r r o o r o r o r o o o t i n m M R T M m d i t o o o o o o r r r r t r o o o y y i p n b ( s.m.B.V.",
"/ / / / ( ( R m a i y r t u t t y y y y y y y r y y i a M R / ( ( / R M d i t t o y u y y y t t y t y t y y y u t i n ^ s.M.V.P.",
"( _ | | t.( ( ^ T B n s a a a a a a a a a a a s s n b U ^ ( | | t.| / ^ T b n a a a a a a a a a a a p p u y o o o t a R y.m.V.V.",
"t.t.t.t.t.t.t.y. .u.@. .| / ^ ^ E E ) E ^ E ) _  .@.@.u.y.t.t.t.t.t.y.y.p.p. . .| / ^ ^ ^ ^ ^ / ^ ^ T b a y o o r t i b / i.f.m.",
"t.t.t.| | t.u.g.M.H.H.D.M.z.l.g.g.l.l.g.g.l.z.m.V.H.H.M.l.u.t.| | t.u.l.M.H.H.D.m.z.l.g.g.g.l.z.m.l. ./ n y r o o o i n b T ^ ^ ",
"_ | | _ ( | u.m.L.Y.Q.Y.I.K.V.V.V.V.V.V.V.V.K.I.Y.Q.Y.L.m.u.| / ( ( u.m.L.R.Q.Y.I.K.V.V.V.V.V.V.B.V.m. .T n y r t t t i p p a n ",
"/ ^ / E ^ /  .x.J.T.R.R.I.H.V.V.D.D.D.V.V.V.H.I.T.R.T.J.x. ./ R R / y.z.J.R.R.T.I.H.V.V.D.D.D.H.V.V.m.f.) b n i y t t t o p o o ",
"Y Y Y Y B Y ! @.k.Z.S.Z.C.k.j.h.h.j.j.j.d.j.k.C.Z.S.Z.k.@.! C B V Y ! @.k.Z.S.Z.C.k.j.h.h.j.j.x.B.V.m.m. .| M n a u t t o o o o ",
"l l v l l l N Z ` ..+.+.] ` Q Q Q Q Q Q Q Q Q ] +.+...' Z N l l l l N Z ` ..+.+.] ` Q Q Q Q ~ O.f.g.m.l.m.s. .^ b p y r o o o o ",
"= = = = = : : g j c c j j h h h h h h h h h j j c c j j h : : = = = : h j j c c j h j : : h N N !  .t.m.M.V.m.u.T p y r o i o i ",
"% X % O % % % X % O O % O O % O O O O O O % O O O X O % % O O O O % % O % O % X O X % & % % : k B W | g.B.V.V.f.^ n t r t y u o ",
"% % % X X X X X X X   . X X X X X X X X X X X X X X X X X X X X X X X X . . X . X X X X X X O : s V ^ u.M.L.V.g.R n y r r + o i ",
"X % X O X X X X X X X X X X X X X X X X X X X X X X X X X X O X O X X X X X   X X X X X X O O O & k V O.m.D.V.l.) n o o o i o u ",
"% % % O % % % % O O X O O O O % O O O O O % O O O % X O % O % O O O O @ X O O O O O & O O O & % O = N ' k.D.V.l.^ p u o u o i o ",
"X % % & & * > > > > > > > > > > > > > > > > > > > > > > > > > > > > > > > > * * * * & O % % % X X % : ` h.V.V.l.^ p o o r t o + ",
"% % & > < q q w w q q w q q q q q w q q w q q q q q q q q q w q q q q q q q q q , > * # # % O X X O : Q h.V.B.l.^ n u o r t y y ",
"O O * > w *.,.<.<.<.<.<.<.,.,.;.<.<.,.,.<.<.<.<.<.<.<.<.<.<.<.<.<.<.<.<.:.:.=.e q 1 , # # O O O X % > Q j.V.V.l.^ p y r r t t y ",
"O O * q *.2.5.8.5.5.5.5.5.5.5.5.5.5.5.5.5.5.5.5.5.5.5.5.5.5.5.5.5.5.5.9.5.5.2.2.=.e 2 , > O O X X % : Q j.V.M.f.^ n t r r y t t ",
"X O > q ,.5.0.0.9.9.7.5.9.9.7.7.8.8.7.7.8.8.8.8.8.8.8.8.8.8.8.7.7.7.9.7.9.7.4.3.;.-.w 2 > * O X X % > Q N.H.H.m./ n y o r t t y ",
"X O > q ,.6.0.0.7.5.3.3.3.5.3.3.3.3.5.3.3.3.3.3.3.3.3.3.3.3.3.3.3.5.3.3.4.4.3.3.:.;.-.q , * O X X % N ..N.I.P.m.) n y o r t t t ",
"O O * q ,.5.0.6.5.:.:.:.:.:.:.:.<.;.;.;.;.:.;.;.:.;.:.;.:.;.;.:.;.;.:.;.;.;.:.:.2.3.:.e q * O X X O j ..S.R.Y.V. .n o r r y y y ",
"X @ > q ;.5.9.5.:.*.e e e &.e e &.&.&.&.&.&.&.&.e &.&.e &.&.e &.e e &.e e &.;.:.2.5.3.=.q > X X . % N +.S.R.R.H. .n y r r o y o ",
"X O > q ;.5.7.5.:.&.w 7 8 8 9 w 9 9 9 9 0 9 0 0 8 0 8 8 0 8 8 8 w e 7 7 9 w e ;.3.7.5.<.q > O X . O j ..Z.T.Y.V. .b p o y o y o ",
"X O > q ;.5.6.3.:.e 7 7 7 8 7 7 7 0 7 7 7 7 9 7 9 7 7 9 8 8 7 8 q 7 7 7 7 7 e ;.5.9.6.<.q > O X . % h ` N.J.H.m. .Y n i i y y y ",
"@ O > q ,.5.6.3.;.e 8 7 8 8 8 7 7 0 7 7 0 9 7 7 7 8 9 7 9 7 8 8 w 7 9 7 7 7 &.;.3.9.5.<.q > % X X % > Z @.m.m.m. .^ M n p y o o ",
"X O > q ,.5.5.3.:.e w 7 8 8 8 7 9 9 9 9 7 9 9 9 9 0 0 8 8 8 8 8 9 7 9 7 7 w &.;.3.7.5.:.q > % X X O + N !  . . .| ( R M n y u o ",
"X @ * q ,.5.6.5.;.e 8 7 7 w 9 9 7 9 9 9 0 9 7 9 9 0 9 7 0 8 8 8 9 9 w 9 7 9 &.;.3.9.7.<.q > % X X % : N Y ( | u.| | / M n i y o ",
"X @ * q ,.5.6.5.;.e 8 7 8 8 9 9 0 9 7 0 9 9 0 9 9 7 9 9 8 9 8 9 9 7 8 9 7 9 &.;.3.9.5.:.q > % X X O % n B R ( | | | ( T n i u o ",
"O % > q <.4.8.3.1.e 8 8 8 8 8 8 8 9 8 9 8 8 8 9 9 0 8 8 9 8 8 8 9 7 9 9 7 8 &.:.5.5.5.<.q > % X X O = l B E ( _ t.t.( T d i t r ",
"X % > 5 <.4.7.4.;.e 8 7 8 9 8 9 8 8 8 8 9 9 8 0 8 8 9 8 8 8 9 8 9 w w 7 7 8 e :.3.8.5.<.q > O X O O = l Y / _ t.t._ ( M d i t r ",
"X O > q ,.5.7.3.,.e 8 8 8 8 9 8 9 8 8 8 8 8 8 9 9 8 8 9 0 9 8 9 9 7 8 7 7 8 e :.3.8.5.<.w > O O X O : N W _ y.t.t.( R m a i t t ",
"X @ > 5 ,.5.8.4.;.e 8 7 8 7 7 7 7 7 7 9 9 8 8 8 9 8 8 8 9 8 8 9 9 9 8 9 7 8 e :.3.8.5.<.q > % X X O : N ~ i.f.u.( R M d p u t t ",
"X O > S <.4.8.4.;.&.9 8 8 7 8 8 9 7 9 7 8 9 8 9 8 9 8 8 9 8 8 0 9 8 8 8 7 8 &.:.3.8.5.<.w > O X X % : Z @.z.z.s.( M a i u u t t ",
"X O > 5 <.4.8.4.;.e 8 8 8 8 8 8 9 8 9 9 8 8 8 8 8 8 9 0 8 8 8 9 8 8 8 8 w 8 e :.3.7.5.,.q > O X X % h Q a.M.B.f./ n i u t t t t ",
"O % > q <.4.7.4.,.e 9 9 0 F F e L H G w e 0 8 8 8 8 9 8 8 9 9 0 8 8 9 7 7 8 &.:.3.8.5.<.q > O X X O h Q h.D.V.g.^ a t r r t t t ",
"X O > 5 <.4.7.4.;.e D F L { { q.q.+.<.L H w 9 8 9 9 8 8 8 8 9 8 8 9 w 8 7 8 e :.5.8.5.<.q > O X X O h Q j.D.V.l.^ p t o r t u t ",
"X @ > q ,.5.5.3.;.e e K q.q.b.n.v.v.q.q.>.D 8 7 7 9 9 9 8 8 9 8 8 8 w 7 7 8 e :.5.9.5.,.q > % X X % j Q j.D.V.l.^ a t r r t t y ",
"X O > q ,.5.8.3.;.e F { q.b.F.L.H.Z.C.q.{ D 9 7 9 9 8 8 9 8 8 8 9 8 9 9 8 8 e :.3.5.5.<.q > O X X X h Q j.D.V.l.^ a t r r t t t ",
"X @ * q :.5.7.3.;.e G } v.F.P.U.P.P.F.b.q.G 9 7 7 9 8 8 8 9 8 8 8 8 8 8 8 8 e :.3.7.5.<.q > O X X % h ` k.H.K.z.) a y r r t t t ",
"X O > q ;.4.7.3.;.&.G { b.F.U.E.W.E.L.n.>.G 9 7 7 9 8 9 8 8 8 9 9 8 8 8 7 8 e :.3.7.5.<.q > X X X O j ] C.I.I.M.) a t r r t t y ",
"X O > q ,.5.9.3.;.e F >.n.L.E.E.E.U.L.n.o.H 0 7 7 9 9 8 9 0 7 9 8 8 8 8 7 w e :.5.7.5.<.q > O X X O j ..Z.T.Y.D. .a t o r t t t ",
"X O > q ,.5.6.3.;.&.F q.b.F.P.P.U.P.F.b.{ H 9 7 7 9 8 8 7 9 9 9 9 8 8 8 7 9 e :.3.7.5.<.q > O X   O c +.S.R.Q.H.u.n t o r t t t ",
"X O > q :.5.7.3.;.&.F [ %.n.D.G.G.D.n.%.{ F 9 8 7 9 9 9 9 9 9 0 8 9 8 8 8 8 &.:.3.7.5.<.q > O X X % c ..Z.R.Y.D.@.m i t t t t u ",
"X O > q ;.4.7.3.;.e D K [ $.d.g.h.d.$.[ K D 8 8 7 9 0 7 9 0 9 7 8 8 8 8 7 8 &.:.3.7.5.<.w > O X X O j ' k.J.L.M.u.U d i i t t t ",
"O O > q ,.5.9.5.;.e q q J A Q W W Q A J D 0 9 9 9 9 0 9 9 7 9 9 8 8 8 8 8 8 &.=.5.8.5.<.w > O X X % : Z @.x.m.g.y.R M d p u t t ",
"O O * q =.5.9.2.:.e q 4 < h h g h h x x 6 3 7 9 9 7 9 7 0 9 9 0 8 8 8 8 7 8 &.:.3.8.5.<.q > % X X X : N !  .i.u.y.( R M a u t r ",
"O O > q ;.5.7.3.:.e q 1 - * & & & & * ; 6 0 9 9 9 9 9 0 7 9 9 9 0 9 8 8 8 8 e :.3.8.5.<.q > % X X % : l Y ^ ( t.t.| / M n i t t ",
"X O * q ;.5.7.3.:.e 7 1 ; $ $ # # # - ; 2 7 9 9 9 7 9 9 9 9 0 7 8 9 8 8 7 0 e :.3.8.5.<.q > O X X X = l Y R ( t.t.| / T n i t r ",
"X @ > q ;.5.7.5.<.&.7 2 1 1 , ; ; 1 1 1 2 0 9 8 9 0 9 0 9 7 0 9 8 8 8 8 7 0 e :.3.8.5.,.q > O O O % : l B E / | t.| ( R n i t r ",
"X @ : q ;.5.9.2.;.&.8 3 7 7 3 7 2 2 7 7 9 7 8 9 7 9 9 7 9 9 9 9 8 9 8 8 8 8 &.:.3.8.5.,.q > % X X % : l Y ^ | t.t.| / M d i t r ",
"  O > q =.5.9.5.;.&.0 9 7 0 9 7 0 8 9 0 9 9 9 0 9 9 9 9 0 9 7 9 8 8 8 8 7 8 e :.3.8.5.<.w > O X X % : N W | y.y.| / R m a i t t ",
"O O > q ,.5.9.2.;.&.7 7 9 7 9 9 8 8 8 9 7 7 9 7 0 7 7 0 7 9 0 7 8 8 8 8 3 8 e :.3.8.5.<.q > % X X % : N ~ u.f.u.| R m d p i t r ",
"O % > q ,.5.8.3.;.9 7 7 7 9 7 9 9 7 9 7 0 7 7 8 7 0 7 7 7 7 7 9 7 8 7 7 7 7 e ;.3.7.5.<.q > O X X & : Z @.z.z.s./ M d p u u t t ",
"X O > q ,.5.7.3.;.&.9 9 9 0 9 9 9 9 9 9 0 9 9 9 9 9 9 9 0 9 0 8 8 8 0 7 8 0 e :.3.8.5.<.q > O X X O h Q d.m.B.g./ n i t t t t t ",
"X O > q ,.5.8.4.1.-.&.9 &.9 e e e e &.&.9 e e &.e e e &.&.&.e e e e e e e e -.1.4.8.5.<.w > O X X X h Q h.V.V.z.^ a t r t t t t ",
"X O * 5 ,.5.8.7.3.1.;.;.,.;.;.,.;.;.;.=.<.;.;.;.;.,.,.;.;.;.;.=.:.;.;.,.=.;.<.3.7.9.5.<.q > O X X O h ` j.D.V.l.^ p t r r t t t ",
"X @ * q ,.4.9.0.7.3.3.3.3.3.3.3.3.3.3.3.3.3.3.3.3.3.3.3.3.3.3.3.3.3.3.3.3.3.3.7.9.9.5.<.q > O X X O h Q j.D.V.l.E a t r r t t t ",
"X @ > 5 ,.6.0.0.0.7.7.7.7.7.7.7.8.8.7.7.7.7.7.8.7.7.8.4.8.8.7.7.7.7.7.8.8.7.8.9.0.0.5.<.q > O X X O h Q h.D.V.l.^ a i r r t u t ",
"O % * q ,.4.0.e.0.0.0.0.0.0.0.0.0.0.0.0.9.0.0.0.e.0.0.0.0.0.0.0.9.0.0.0.0.0.0.e.e.0.5.<.q > O X X % h Q j.D.V.l.^ a t r r t t t ",
"X @ * q ,.6.0.e.e.e.e.e.e.e.e.e.e.e.e.e.e.e.e.e.e.e.e.e.e.e.r.e.e.r.r.e.e.e.e.r.r.0.5.,.q * O X X O j Q h.V.V.l.^ a t r t t t t "
};
